!!! OTL: Literature142
!!! Chapter: 5
!!! Section: IV
!!! Page: 378
!!! Mode: 
!!! Encoder: DJB
**kern
*staff1
*I"Piano
=1-
*clefF4
*k[b-e-a-d-g-]
*b-:
*M4/4
2B-\
4..An\
16B-\
=2
2.d-\
12c\L
12An\
12G-\J
=3
4E-\
4r
8r
8Dn\L
8E-\
8F\J
=4
2.A-\
12G-\L
12E-\
12D-\J
=5
4AAn/
4r
4r
8.r
48AA/LLL
48BB-/
48C/JJJ
=6
8D-\L
8D-\
8D-\
8D-\J
8D-/L
16C/L
16BB-/JJ
8F\L
8En\J
=7
!!linebreak:original
8E-\L
8G-\
8B-\
8d-\J
8c\L
8An\
8G-\
8E-\J
=8
8D-\L
8F\
8An\
8c\J
8B-\L
8G-\
8F\
8D-\J
=9
8C\L
8E-\
8G-\
8B-\J
8C\L
8E-\
8G-\
8An\J
=10
2B-\
2BB-/
==
*-
